assets/1. F-P/Keycap asterisk/Color/Keycap.Asterisk-color.svg

<svg width="100%" height="100%" viewBox="0 0 32 32" fill="none" xmlns="http://www.w3.org/2000/svg">
<g filter="url(#filter0_ii_18590_2199)">
<rect x="1.93433" y="1.9375" width="27.875" height="27.875" rx="3.6" fill="url(#paint0_linear_18590_2199)"/>
<rect x="1.93433" y="1.9375" width="27.875" height="27.875" rx="3.6" fill="url(#paint1_radial_18590_2199)"/>
</g>
<g filter="url(#filter1_f_18590_2199)">
<path d="M28.1218 4.4375V27.3125" stroke="url(#paint2_linear_18590_2199)" stroke-width="1.5" stroke-linecap="round"/>
</g>
<g filter="url(#filter2_f_18590_2199)">
<path d="M5.39819 3.75H27.1794" stroke="url(#paint3_linear_18590_2199)" stroke-width="1.5" stroke-linecap="round"/>
</g>
<g filter="url(#filter3_f_18590_2199)">
<path d="M15.894 7.625C16.8605 7.625 17.644 8.4085 17.644 9.375V12.6579C17.644 12.7348 17.7274 12.783 17.794 12.7445L20.6259 11.1095C21.4629 10.6262 22.5332 10.913 23.0165 11.75C23.4997 12.587 23.2129 13.6573 22.3759 14.1406L19.5218 15.7884C19.4552 15.8269 19.4552 15.9231 19.5218 15.9616L22.376 17.6095C23.2131 18.0927 23.4998 19.163 23.0166 20C22.5333 20.837 21.4631 21.1238 20.626 20.6406L17.794 19.0055C17.7274 18.967 17.644 19.0151 17.644 19.0921V22.375C17.644 23.3415 16.8605 24.125 15.894 24.125C14.9275 24.125 14.144 23.3415 14.144 22.375V19.0665C14.144 18.9895 14.0607 18.9414 13.994 18.9799L11.1176 20.6406C10.2806 21.1238 9.21031 20.837 8.72706 20C8.24381 19.163 8.53059 18.0927 9.3676 17.6095L12.2218 15.9616C12.2885 15.9231 12.2885 15.8269 12.2218 15.7884L9.36771 14.1406C8.5307 13.6573 8.24392 12.587 8.72717 11.75C9.21042 10.913 10.2807 10.6262 11.1177 11.1095L13.994 12.7701C14.0607 12.8086 14.144 12.7605 14.144 12.6835V9.375C14.144 8.4085 14.9275 7.625 15.894 7.625Z" fill="#579FFF"/>
</g>
<g filter="url(#filter4_ii_18590_2199)">
<path d="M15.894 7.625C16.8605 7.625 17.644 8.4085 17.644 9.375V12.6579C17.644 12.7348 17.7274 12.783 17.794 12.7445L20.6259 11.1095C21.4629 10.6262 22.5332 10.913 23.0165 11.75C23.4997 12.587 23.2129 13.6573 22.3759 14.1406L19.5218 15.7884C19.4552 15.8269 19.4552 15.9231 19.5218 15.9616L22.376 17.6095C23.2131 18.0927 23.4998 19.163 23.0166 20C22.5333 20.837 21.4631 21.1238 20.626 20.6406L17.794 19.0055C17.7274 18.967 17.644 19.0151 17.644 19.0921V22.375C17.644 23.3415 16.8605 24.125 15.894 24.125C14.9275 24.125 14.144 23.3415 14.144 22.375V19.0665C14.144 18.9895 14.0607 18.9414 13.994 18.9799L11.1176 20.6406C10.2806 21.1238 9.21031 20.837 8.72706 20C8.24381 19.163 8.53059 18.0927 9.3676 17.6095L12.2218 15.9616C12.2885 15.9231 12.2885 15.8269 12.2218 15.7884L9.36771 14.1406C8.5307 13.6573 8.24392 12.587 8.72717 11.75C9.21042 10.913 10.2807 10.6262 11.1177 11.1095L13.994 12.7701C14.0607 12.8086 14.144 12.7605 14.144 12.6835V9.375C14.144 8.4085 14.9275 7.625 15.894 7.625Z" fill="#FCF2FF"/>
</g>
<defs>
<filter id="filter0_ii_18590_2199" x="1.93433" y="0.9375" width="28.875" height="28.875" filterUnits="userSpaceOnUse" color-interpolation-filters="sRGB">
<feFlood flood-opacity="0" result="BackgroundImageFix"/>
<feBlend mode="normal" in="SourceGraphic" in2="BackgroundImageFix" result="shape"/>
<feColorMatrix in="SourceAlpha" type="matrix" values="0 0 0 0 0 0 0 0 0 0 0 0 0 0 0 0 0 0 127 0" result="hardAlpha"/>
<feOffset dx="1" dy="-1"/>
<feGaussianBlur stdDeviation="1.5"/>
<feComposite in2="hardAlpha" operator="arithmetic" k2="-1" k3="1"/>
<feColorMatrix type="matrix" values="0 0 0 0 0.188235 0 0 0 0 0.470588 0 0 0 0 0.843137 0 0 0 1 0"/>
<feBlend mode="normal" in2="shape" result="effect1_innerShadow_18590_2199"/>
<feColorMatrix in="SourceAlpha" type="matrix" values="0 0 0 0 0 0 0 0 0 0 0 0 0 0 0 0 0 0 127 0" result="hardAlpha"/>
<feOffset dy="-1"/>
<feGaussianBlur stdDeviation="1.5"/>
<feComposite in2="hardAlpha" operator="arithmetic" k2="-1" k3="1"/>
<feColorMatrix type="matrix" values="0 0 0 0 0.27451 0 0 0 0 0.34902 0 0 0 0 0.8 0 0 0 1 0"/>
<feBlend mode="normal" in2="effect1_innerShadow_18590_2199" result="effect2_innerShadow_18590_2199"/>
</filter>
<filter id="filter1_f_18590_2199" x="25.3718" y="1.6875" width="5.5" height="28.375" filterUnits="userSpaceOnUse" color-interpolation-filters="sRGB">
<feFlood flood-opacity="0" result="BackgroundImageFix"/>
<feBlend mode="normal" in="SourceGraphic" in2="BackgroundImageFix" result="shape"/>
<feGaussianBlur stdDeviation="1" result="effect1_foregroundBlur_18590_2199"/>
</filter>
<filter id="filter2_f_18590_2199" x="2.64819" y="1" width="27.2812" height="5.5" filterUnits="userSpaceOnUse" color-interpolation-filters="sRGB">
<feFlood flood-opacity="0" result="BackgroundImageFix"/>
<feBlend mode="normal" in="SourceGraphic" in2="BackgroundImageFix" result="shape"/>
<feGaussianBlur stdDeviation="1" result="effect1_foregroundBlur_18590_2199"/>
</filter>
<filter id="filter3_f_18590_2199" x="7.49231" y="6.625" width="16.759" height="18.5" filterUnits="userSpaceOnUse" color-interpolation-filters="sRGB">
<feFlood flood-opacity="0" result="BackgroundImageFix"/>
<feBlend mode="normal" in="SourceGraphic" in2="BackgroundImageFix" result="shape"/>
<feGaussianBlur stdDeviation="0.5" result="effect1_foregroundBlur_18590_2199"/>
</filter>
<filter id="filter4_ii_18590_2199" x="7.49231" y="7.225" width="16.159" height="17.9" filterUnits="userSpaceOnUse" color-interpolation-filters="sRGB">
<feFlood flood-opacity="0" result="BackgroundImageFix"/>
<feBlend mode="normal" in="SourceGraphic" in2="BackgroundImageFix" result="shape"/>
<feColorMatrix in="SourceAlpha" type="matrix" values="0 0 0 0 0 0 0 0 0 0 0 0 0 0 0 0 0 0 127 0" result="hardAlpha"/>
<feOffset dx="-1" dy="1"/>
<feGaussianBlur stdDeviation="1"/>
<feComposite in2="hardAlpha" operator="arithmetic" k2="-1" k3="1"/>
<feColorMatrix type="matrix" values="0 0 0 0 0.866667 0 0 0 0 0.819608 0 0 0 0 0.941176 0 0 0 1 0"/>
<feBlend mode="normal" in2="shape" result="effect1_innerShadow_18590_2199"/>
<feColorMatrix in="SourceAlpha" type="matrix" values="0 0 0 0 0 0 0 0 0 0 0 0 0 0 0 0 0 0 127 0" result="hardAlpha"/>
<feOffset dx="0.4" dy="-0.4"/>
<feGaussianBlur stdDeviation="0.5"/>
<feComposite in2="hardAlpha" operator="arithmetic" k2="-1" k3="1"/>
<feColorMatrix type="matrix" values="0 0 0 0 1 0 0 0 0 0.988235 0 0 0 0 1 0 0 0 1 0"/>
<feBlend mode="normal" in2="effect1_innerShadow_18590_2199" result="effect2_innerShadow_18590_2199"/>
</filter>
<linearGradient id="paint0_linear_18590_2199" x1="15.8718" y1="5.51201" x2="15.8718" y2="38.7647" gradientUnits="userSpaceOnUse">
<stop stop-color="#5CB7FF"/>
<stop offset="1" stop-color="#4878DD"/>
</linearGradient>
<radialGradient id="paint1_radial_18590_2199" cx="0" cy="0" r="1" gradientUnits="userSpaceOnUse" gradientTransform="translate(27.5906 4.03125) rotate(136.771) scale(2.14444 2.50466)">
<stop stop-color="#7BD7FF"/>
<stop offset="1" stop-color="#7BD7FF" stop-opacity="0"/>
</radialGradient>
<linearGradient id="paint2_linear_18590_2199" x1="28.6218" y1="4.4375" x2="28.6218" y2="27.3125" gradientUnits="userSpaceOnUse">
<stop stop-color="#7FD9FF"/>
<stop offset="1" stop-color="#639DF4"/>
</linearGradient>
<linearGradient id="paint3_linear_18590_2199" x1="28.3357" y1="4.00002" x2="2.80444" y2="4.00002" gradientUnits="userSpaceOnUse">
<stop stop-color="#7DD8FF"/>
<stop offset="1" stop-color="#5DB6FF"/>
</linearGradient>
</defs>
</svg>

<svg width="100%" height="100%" viewBox="0 0 32 32" xmlns="http://www.w3.org/2000/svg"><g filter="url(#a)"><rect width="27.875" height="27.875" x="1.934" y="1.938" fill="url(#b)" rx="3.6"/><rect width="27.875" height="27.875" x="1.934" y="1.938" fill="url(#c)" rx="3.6"/></g><g filter="url(#d)"><path stroke="url(#e)" stroke-linecap="round" stroke-width="1.5" d="M28.122 4.438v22.875"/></g><g filter="url(#f)"><path stroke="url(#g)" stroke-linecap="round" stroke-width="1.5" d="M5.398 3.75H27.18"/></g><g filter="url(#h)"><path fill="#579FFF" d="M15.894 7.625c.966 0 1.75.784 1.75 1.75v3.283a.1.1 0 0 0 .15.087l2.832-1.635a1.75 1.75 0 1 1 1.75 3.03l-2.854 1.648a.1.1 0 0 0 0 .174l2.854 1.648a1.75 1.75 0 1 1-1.75 3.03l-2.832-1.634a.1.1 0 0 0-.15.086v3.283a1.75 1.75 0 1 1-3.5 0v-3.308a.1.1 0 0 0-.15-.087l-2.876 1.66a1.75 1.75 0 0 1-1.75-3.03l2.854-1.648a.1.1 0 0 0 0-.174l-2.854-1.647a1.75 1.75 0 0 1 1.75-3.031l2.876 1.66a.1.1 0 0 0 .15-.086V9.375c0-.966.784-1.75 1.75-1.75"/></g><g filter="url(#i)"><path fill="#FCF2FF" d="M15.894 7.625c.966 0 1.75.784 1.75 1.75v3.283a.1.1 0 0 0 .15.087l2.832-1.635a1.75 1.75 0 1 1 1.75 3.03l-2.854 1.648a.1.1 0 0 0 0 .174l2.854 1.648a1.75 1.75 0 1 1-1.75 3.03l-2.832-1.634a.1.1 0 0 0-.15.086v3.283a1.75 1.75 0 1 1-3.5 0v-3.308a.1.1 0 0 0-.15-.087l-2.876 1.66a1.75 1.75 0 0 1-1.75-3.03l2.854-1.648a.1.1 0 0 0 0-.174l-2.854-1.647a1.75 1.75 0 0 1 1.75-3.031l2.876 1.66a.1.1 0 0 0 .15-.086V9.375c0-.966.784-1.75 1.75-1.75"/></g><defs><filter id="a" width="28.875" height="28.875" x="1.934" y=".938" color-interpolation-filters="sRGB" filterUnits="userSpaceOnUse"><feFlood flood-opacity="0" result="BackgroundImageFix"/><feBlend in="SourceGraphic" in2="BackgroundImageFix" result="shape"/><feColorMatrix in="SourceAlpha" result="hardAlpha" values="0 0 0 0 0 0 0 0 0 0 0 0 0 0 0 0 0 0 127 0"/><feOffset dx="1" dy="-1"/><feGaussianBlur stdDeviation="1.5"/><feComposite in2="hardAlpha" k2="-1" k3="1" operator="arithmetic"/><feColorMatrix values="0 0 0 0 0.188235 0 0 0 0 0.470588 0 0 0 0 0.843137 0 0 0 1 0"/><feBlend in2="shape" result="effect1_innerShadow_18590_2199"/><feColorMatrix in="SourceAlpha" result="hardAlpha" values="0 0 0 0 0 0 0 0 0 0 0 0 0 0 0 0 0 0 127 0"/><feOffset dy="-1"/><feGaussianBlur stdDeviation="1.5"/><feComposite in2="hardAlpha" k2="-1" k3="1" operator="arithmetic"/><feColorMatrix values="0 0 0 0 0.27451 0 0 0 0 0.34902 0 0 0 0 0.8 0 0 0 1 0"/><feBlend in2="effect1_innerShadow_18590_2199" result="effect2_innerShadow_18590_2199"/></filter><filter id="d" width="5.5" height="28.375" x="25.372" y="1.688" color-interpolation-filters="sRGB" filterUnits="userSpaceOnUse"><feFlood flood-opacity="0" result="BackgroundImageFix"/><feBlend in="SourceGraphic" in2="BackgroundImageFix" result="shape"/><feGaussianBlur result="effect1_foregroundBlur_18590_2199" stdDeviation="1"/></filter><filter id="f" width="27.281" height="5.5" x="2.648" y="1" color-interpolation-filters="sRGB" filterUnits="userSpaceOnUse"><feFlood flood-opacity="0" result="BackgroundImageFix"/><feBlend in="SourceGraphic" in2="BackgroundImageFix" result="shape"/><feGaussianBlur result="effect1_foregroundBlur_18590_2199" stdDeviation="1"/></filter><filter id="h" width="16.759" height="18.5" x="7.492" y="6.625" color-interpolation-filters="sRGB" filterUnits="userSpaceOnUse"><feFlood flood-opacity="0" result="BackgroundImageFix"/><feBlend in="SourceGraphic" in2="BackgroundImageFix" result="shape"/><feGaussianBlur result="effect1_foregroundBlur_18590_2199" stdDeviation=".5"/></filter><filter id="i" width="16.159" height="17.9" x="7.492" y="7.225" color-interpolation-filters="sRGB" filterUnits="userSpaceOnUse"><feFlood flood-opacity="0" result="BackgroundImageFix"/><feBlend in="SourceGraphic" in2="BackgroundImageFix" result="shape"/><feColorMatrix in="SourceAlpha" result="hardAlpha" values="0 0 0 0 0 0 0 0 0 0 0 0 0 0 0 0 0 0 127 0"/><feOffset dx="-1" dy="1"/><feGaussianBlur stdDeviation="1"/><feComposite in2="hardAlpha" k2="-1" k3="1" operator="arithmetic"/><feColorMatrix values="0 0 0 0 0.866667 0 0 0 0 0.819608 0 0 0 0 0.941176 0 0 0 1 0"/><feBlend in2="shape" result="effect1_innerShadow_18590_2199"/><feColorMatrix in="SourceAlpha" result="hardAlpha" values="0 0 0 0 0 0 0 0 0 0 0 0 0 0 0 0 0 0 127 0"/><feOffset dx=".4" dy="-.4"/><feGaussianBlur stdDeviation=".5"/><feComposite in2="hardAlpha" k2="-1" k3="1" operator="arithmetic"/><feColorMatrix values="0 0 0 0 1 0 0 0 0 0.988235 0 0 0 0 1 0 0 0 1 0"/><feBlend in2="effect1_innerShadow_18590_2199" result="effect2_innerShadow_18590_2199"/></filter><linearGradient id="b" x1="15.872" x2="15.872" y1="5.512" y2="38.765" gradientUnits="userSpaceOnUse"><stop stop-color="#5CB7FF"/><stop offset="1" stop-color="#4878DD"/></linearGradient><linearGradient id="e" x1="28.622" x2="28.622" y1="4.438" y2="27.313" gradientUnits="userSpaceOnUse"><stop stop-color="#7FD9FF"/><stop offset="1" stop-color="#639DF4"/></linearGradient><linearGradient id="g" x1="28.336" x2="2.804" y1="4" y2="4" gradientUnits="userSpaceOnUse"><stop stop-color="#7DD8FF"/><stop offset="1" stop-color="#5DB6FF"/></linearGradient><radialGradient id="c" cx="0" cy="0" r="1" gradientTransform="matrix(-1.56249 1.46876 -1.71548 -1.82495 27.59 4.031)" gradientUnits="userSpaceOnUse"><stop stop-color="#7BD7FF"/><stop offset="1" stop-color="#7BD7FF" stop-opacity="0"/></radialGradient></defs></svg>
